X: 39376
T: Tanga's
R: reel
M: 4/4
K: Dmajor
|:d2AF EAGE|D2FA dAFD|CDEF GEed|cdec Agfe|
d2AF EAGE|D2FA dAFD|CDEF GEed|1 cdec d2 (3ABc:|2 cdec d3e||
|:fddc defg|~a3b agea|fddc defg|abaf ~g3a|
fddc defg|~a3b agec|dedc A2 (3Bcd|1 cAGE D2de:|2 eA (3Bcd eage||

